docs/images/sharp.svg

<?xml version="1.0" encoding="UTF-8" standalone="no"?>
<!-- Created with Vectornator for iOS (http://vectornator.io/) -->

<svg
   xmlns:vectornator="http://vectornator.io"
   xmlns:dc="http://purl.org/dc/elements/1.1/"
   xmlns:cc="http://creativecommons.org/ns#"
   xmlns:rdf="http://www.w3.org/1999/02/22-rdf-syntax-ns#"
   xmlns:svg="http://www.w3.org/2000/svg"
   xmlns="http://www.w3.org/2000/svg"
   xmlns:sodipodi="http://sodipodi.sourceforge.net/DTD/sodipodi-0.dtd"
   xmlns:inkscape="http://www.inkscape.org/namespaces/inkscape"
   style="fill-rule:evenodd;clip-rule:evenodd;stroke-linecap:round;stroke-linejoin:round;"
   xml:space="preserve"
   version="1.1"
   viewBox="0 0 841.995 595.35"
   id="svg29"
   sodipodi:docname="sharp.svg"
   inkscape:version="0.92.5 (2060ec1f9f, 2020-04-08)"><sodipodi:namedview
   pagecolor="#ffffff"
   bordercolor="#666666"
   borderopacity="1"
   objecttolerance="10"
   gridtolerance="10"
   guidetolerance="10"
   inkscape:pageopacity="0"
   inkscape:pageshadow="2"
   inkscape:window-width="1920"
   inkscape:window-height="1055"
   id="namedview31"
   showgrid="false"
   inkscape:zoom="0.70710678"
   inkscape:cx="399.11434"
   inkscape:cy="372.99392"
   inkscape:window-x="1920"
   inkscape:window-y="436"
   inkscape:window-maximized="1"
   inkscape:current-layer="svg29" />
<metadata
   id="metadata2">
<vectornator:setting
   key="DimensionsVisible"
   value="1" />
<vectornator:setting
   key="SnapToGrid"
   value="0" />
<vectornator:setting
   key="SnapToPoints"
   value="0" />
<vectornator:setting
   key="GuidesVisible"
   value="1" />
<vectornator:setting
   key="RulersVisible"
   value="1" />
<vectornator:setting
   key="SnapToEdges"
   value="0" />
<vectornator:setting
   key="DisplayWhiteBackground"
   value="0" />
<vectornator:setting
   key="SnapToGuides"
   value="1" />
<vectornator:setting
   key="GridSpacing"
   value="36" />
<vectornator:setting
   key="Units"
   value="Millimeters" />
<vectornator:setting
   key="DynamicGuides"
   value="0" />
<vectornator:setting
   key="New"
   value="1" />
<rdf:RDF><cc:Work
     rdf:about=""><dc:format>image/svg+xml</dc:format><dc:type
       rdf:resource="http://purl.org/dc/dcmitype/StillImage" /><dc:title></dc:title></cc:Work></rdf:RDF></metadata>
<defs
   id="defs4" />
<g
   id="Слой 1"
   vectornator:layerName="Слой 1"
   visibility="hidden"
   style="visibility:hidden;stroke:none"
   transform="matrix(0.46039774,-0.44570455,0.44570455,0.46039774,120.64617,301.65655)">
<path
   d="M 144.297,107.441 H 577.431 V 540.576 H 144.297 Z"
   id="path6"
   style="opacity:1;fill:#000000;fill-opacity:0;stroke:none;stroke-width:10;stroke-linecap:round;stroke-linejoin:round"
   inkscape:connector-curvature="0" />
</g>
<g
   id="Слой 2"
   vectornator:layerName="Слой 2"
   style="stroke:none"
   transform="matrix(0.46039774,-0.44570455,0.44570455,0.46039774,120.64617,301.65655)">
<path
   d="M 144.297,107.441 144.74462,251.36838 287.016,251.697 432.759,107.14 Z"
   id="path9"
   inkscape:connector-curvature="0"
   style="opacity:1;fill:#b4b4b4;stroke:none;stroke-width:0.1;stroke-linecap:round;stroke-linejoin:round"
   sodipodi:nodetypes="ccccc" />

<path
   d="m 145.797,539.326 143.019,0.319 -0.503,-288.048 -143.56838,-0.22862"
   id="path13"
   style="opacity:1;fill:#393939;fill-opacity:1;stroke:none;stroke-width:0.1;stroke-linecap:round;stroke-linejoin:round"
   inkscape:connector-curvature="0"
   sodipodi:nodetypes="cccc" />
<path
   d="m 432.752,107.367 144.54,142.775 -1.097,-141.523 z"
   id="path15"
   style="opacity:1;fill:#b4b4b4;stroke:none;stroke-width:0.1;stroke-linecap:round;stroke-linejoin:round"
   inkscape:connector-curvature="0" />
<path
   d="M 287.016,251.697 433.982,394.358 577.461,252.332 577.722,539.59 287.58239,539.6 Z"
   id="path17"
   style="opacity:1;fill:#393939;stroke:none;stroke-width:0.1;stroke-linecap:square;stroke-linejoin:round"
   inkscape:connector-curvature="0"
   sodipodi:nodetypes="cccccc" />
<path
   d="m 374.943,268.283 57.406,-58.302 57.269,57.351 -57.083,56.653 z"
   id="path19"
   style="opacity:1;fill:#393939;stroke:none;stroke-width:0.1;stroke-linecap:round;stroke-linejoin:round"
   inkscape:connector-curvature="0" />
</g>
<g
   id="Слой 3"
   vectornator:layerName="Слой 3"
   transform="matrix(0.46039774,-0.44570455,0.44570455,0.46039774,120.64617,301.65655)">

<path
   vectornator:shadowColor="#880e09"
   vectornator:shadowOffset="10"
   vectornator:shadowAngle="1.5708"
   vectornator:shadowRadius="10"
   d="M 304.946,251.566 432.328,124.726 559.42322,250.21279"
   vectornator:shadowOpacity="0"
   id="path24"
   inkscape:connector-curvature="0"
   style="opacity:1;fill:#393939;fill-opacity:0;stroke:#393939;stroke-width:25.75;stroke-linecap:square;stroke-linejoin:miter"
   sodipodi:nodetypes="ccc" />
<path
   vectornator:shadowColor="#880e09"
   vectornator:shadowOffset="10"
   vectornator:shadowAngle="1.5708"
   vectornator:shadowRadius="10"
   d="M 577.55632,250.28256 577.37213,280.3759 435.135,427.688 314.392,310.691 l 2.29592,228.83811 -29.10553,0.0705 -0.7617,-287.89092 L 434.367,391.75 Z"
   vectornator:shadowOpacity="0"
   id="path26"
   inkscape:connector-curvature="0"
   style="opacity:1;fill:#800914;stroke:#800914;stroke-width:0.16;stroke-linecap:square;stroke-linejoin:miter;stroke-opacity:1"
   sodipodi:nodetypes="ccccccccc" />
</g>
</svg>

<?xml version="1.0" encoding="UTF-8" standalone="no"?>
<!-- Created with Vectornator for iOS (http://vectornator.io/) -->

<svg
   xmlns:vectornator="http://vectornator.io"
   xmlns:dc="http://purl.org/dc/elements/1.1/"
   xmlns:cc="http://creativecommons.org/ns#"
   xmlns:rdf="http://www.w3.org/1999/02/22-rdf-syntax-ns#"
   xmlns:svg="http://www.w3.org/2000/svg"
   xmlns="http://www.w3.org/2000/svg"
   xmlns:sodipodi="http://sodipodi.sourceforge.net/DTD/sodipodi-0.dtd"
   xmlns:inkscape="http://www.inkscape.org/namespaces/inkscape"
   style="fill-rule:evenodd;clip-rule:evenodd;stroke-linecap:round;stroke-linejoin:round;"
   xml:space="preserve"
   version="1.1"
   viewBox="0 0 841.995 595.35"
   id="svg29"
   sodipodi:docname="sharp.svg"
   inkscape:version="0.92.5 (2060ec1f9f, 2020-04-08)"><sodipodi:namedview
   pagecolor="#ffffff"
   bordercolor="#666666"
   borderopacity="1"
   objecttolerance="10"
   gridtolerance="10"
   guidetolerance="10"
   inkscape:pageopacity="0"
   inkscape:pageshadow="2"
   inkscape:window-width="1920"
   inkscape:window-height="1055"
   id="namedview31"
   showgrid="false"
   inkscape:zoom="0.5"
   inkscape:cx="315.62337"
   inkscape:cy="42.984113"
   inkscape:window-x="1920"
   inkscape:window-y="436"
   inkscape:window-maximized="1"
   inkscape:current-layer="svg29" />
<metadata
   id="metadata2">
<vectornator:setting
   key="DimensionsVisible"
   value="1" />
<vectornator:setting
   key="SnapToGrid"
   value="0" />
<vectornator:setting
   key="SnapToPoints"
   value="0" />
<vectornator:setting
   key="GuidesVisible"
   value="1" />
<vectornator:setting
   key="RulersVisible"
   value="1" />
<vectornator:setting
   key="SnapToEdges"
   value="0" />
<vectornator:setting
   key="DisplayWhiteBackground"
   value="0" />
<vectornator:setting
   key="SnapToGuides"
   value="1" />
<vectornator:setting
   key="GridSpacing"
   value="36" />
<vectornator:setting
   key="Units"
   value="Millimeters" />
<vectornator:setting
   key="DynamicGuides"
   value="0" />
<vectornator:setting
   key="New"
   value="1" />
<rdf:RDF><cc:Work
     rdf:about=""><dc:format>image/svg+xml</dc:format><dc:type
       rdf:resource="http://purl.org/dc/dcmitype/StillImage" /><dc:title></dc:title></cc:Work></rdf:RDF></metadata>
<defs
   id="defs4" />
<g
   id="Слой 1"
   vectornator:layerName="Слой 1"
   visibility="hidden"
   style="stroke:none">
<path
   d="M144.297+107.441L577.431+107.441L577.431+540.576L144.297+540.576L144.297+107.441Z"
   id="path6"
   style="stroke:none"
   stroke-linejoin="round"
   stroke-linecap="round"
   stroke-width="10"
   stroke="#b7b7b7"
   fill-opacity="0"
   fill="#000000"
   opacity="1" />
</g>
<g
   id="Слой 2"
   vectornator:layerName="Слой 2"
   style="stroke:none">
<path
   d="M 144.297,107.441 144.74462,251.36838 287.016,251.697 432.759,107.14 Z"
   id="path9"
   inkscape:connector-curvature="0"
   style="opacity:1;fill:#b4b4b4;stroke:none;stroke-width:0.1;stroke-linecap:round;stroke-linejoin:round"
   sodipodi:nodetypes="ccccc" />

<path
   d="m 145.797,539.326 143.019,0.319 -0.503,-288.048 -143.56838,-0.22862"
   id="path13"
   style="opacity:1;fill:#393939;fill-opacity:1;stroke:none;stroke-width:0.1;stroke-linecap:round;stroke-linejoin:round"
   inkscape:connector-curvature="0"
   sodipodi:nodetypes="cccc" />
<path
   d="M432.752+107.367L577.292+250.142L576.195+108.619L432.752+107.367Z"
   id="path15"
   style="stroke:none"
   stroke-linejoin="round"
   stroke-linecap="round"
   stroke-width="0.1"
   stroke="#b7b7b7"
   fill="#b4b4b4"
   opacity="1" />
<path
   d="m 287.016,251.697 146.966,142.661 143.479,-142.026 0.261,287.258 -290.13961,0.01 z"
   id="path17"
   style="opacity:1;fill:#393939;stroke:none;stroke-width:0.1;stroke-linecap:square;stroke-linejoin:round"
   inkscape:connector-curvature="0"
   sodipodi:nodetypes="cccccc" />
<path
   d="M374.943+268.283L432.349+209.981L489.618+267.332L432.535+323.985L374.943+268.283Z"
   id="path19"
   style="stroke:none"
   stroke-linejoin="round"
   stroke-linecap="round"
   stroke-width="0.1"
   stroke="#b7b7b7"
   fill="#393939"
   opacity="1" />
</g>
<g
   id="Слой 3"
   vectornator:layerName="Слой 3">

<path
   vectornator:shadowColor="#880e09"
   vectornator:shadowOffset="10"
   vectornator:shadowAngle="1.5708"
   vectornator:shadowRadius="10"
   d="M 304.946,251.566 432.328,124.726 559.42322,250.21279"
   vectornator:shadowOpacity="0"
   id="path24"
   inkscape:connector-curvature="0"
   style="opacity:1;fill:#393939;fill-opacity:0;stroke:#393939;stroke-width:25.75;stroke-linecap:square;stroke-linejoin:miter"
   sodipodi:nodetypes="ccc" />
<path
   vectornator:shadowColor="#880e09"
   vectornator:shadowOffset="10"
   vectornator:shadowAngle="1.5708"
   vectornator:shadowRadius="10"
   d="M 577.55632,250.28256 577.37213,280.3759 435.135,427.688 314.392,310.691 l 2.29592,228.83811 -29.10553,0.0705 -0.7617,-287.89092 L 434.367,391.75 Z"
   vectornator:shadowOpacity="0"
   id="path26"
   inkscape:connector-curvature="0"
   style="opacity:1;fill:#800914;stroke:#800914;stroke-width:0.16;stroke-linecap:square;stroke-linejoin:miter;stroke-opacity:1"
   sodipodi:nodetypes="ccccccccc" />
</g>
</svg>
